icons/a4-portrait-24.svg

<?xml version="1.0" encoding="UTF-8"?><svg id="icons" xmlns="http://www.w3.org/2000/svg" viewBox="0 0 24 24"><defs><style>.cls-1{fill:none;}.cls-1,.cls-2,.cls-3{stroke-width:0px;}.cls-2{opacity:.25;}</style></defs><rect class="cls-1" width="24" height="24"/><path class="cls-2" d="M15,5H5v-3h10v3Z"/><path class="cls-3" d="M16.28998,1H4v7h1V2h10v6h6v15H5v-2h-1v3h18V6.70898l-5.71002-5.70898ZM21,7h-5V2h.20001l4.79999,4.79999v.20001ZM16,19h-1v-2h-4.9541l5.9541-8.60059v7.60059h2v1h-2v2ZM11.9541,16h3.0459v-4.39941l-3.0459,4.39941ZM6.04999,10h-1L1,19h.99078l1.37775-3h4.36292l1.37775,3h.99078l-4.04999-9ZM3.82782,15l1.72217-3.75,1.72217,3.75h-3.44434Z"/></svg>

<svg xmlns="http://www.w3.org/2000/svg" viewBox="0 0 24 24"><path stroke-width="0" fill="none" d="M0 0h24v24H0z"/><path d="M15 5H5V2h10v3z" opacity=".25" stroke-width="0"/><path d="M16.29 1H4v7h1V2h10v6h6v15H5v-2H4v3h18V6.709L16.29 1zM21 7h-5V2h.2L21 6.8V7zm-5 12h-1v-2h-4.954L16 8.4V16h2v1h-2v2zm-4.046-3H15v-4.4L11.954 16zM6.05 10h-1L1 19h.99l1.379-3H7.73l1.378 3h.991l-4.05-9zm-2.222 5l1.722-3.75L7.272 15H3.828z" stroke-width="0"/></svg>
